X: 20661
Q: "Slow."
M: 3/4
L: 1/16
K: G
g4 g>fe>d c>BA>G | {F}E4 z4 (3(e2c2A2) |\
b4- b/(a/g/f/) (g/f/e/d/) (e/d/c/B/) (c/B/A/G/) | E4 z2e2 (3(edc) (3(BAG) |\
M: C
L: 1/16
d2z2 (3(g2d2B2) (3(g2d2B2) (3(B2A2G2) | F3A cBcA F4 z4 |\
e2z2 (3(e2d2c2) (3(e2d2c2) (3(c2B2A2) | Ggfe dcBA G2G2G2G2 |
dede d2a2 d2d2d2d2 | (dede) d2g2 d2G2B2d2 |\
(cdcB) (ABAG) (FGFE) (DEDC) | B,8 z2d2d2d2 |
(dede) d2a2 d2d2d2d2 | (dede) d2a2 d2d2d2d2 |\
(defg) (agfe) (dcBA) (GFED) | G8 z2d2c2B2 |\
(ed^cd) (d=cBc) (cBAB) (BAGA) | ^A4 B4 z2(e<d) (d<c) (c<B) |\
d2ba gfed c2ag fedc | B2gf edcB A2fe dcBA |
(d8 c4) d2e2 | e3d d4 z2d2e2f2 |\
g8 a2g2f2e2 | e3d d4 d2d2e2f2 |\
(agfg) (fede) e(d^cd) (gfef) | (agfg) (fede) (ed^cd) (gfef) |
g4 e4 d4 F4 | G2G2 (GABc) d2d2 (defg) |\
a2a2 (agfe) d2d2 ( dcBA) | G2G2 GABc d2d2 defg |\
a2a2 agfe d2d2 (dcBA) | G4 z2g2 g2g2 |\
g4 z4 b4 z4 | g8 z8 |]



